app/dist/common/images/xometry.svg

<svg height="18" viewBox="0 0 18 18" width="18" xmlns="http://www.w3.org/2000/svg"><path d="m0 0h18v18h-18z" fill="#0e6cf0"/><path d="m5.09 4.14-1.04 1.32 2.77 3.54-2.82 3.54 1.04 1.46 2.77-3.73 2.97 3.73h1.78l-7.46-9.86z" fill="#c7c8d6"/><path d="m12.91 13.95-7.51-9.95h1.83l2.92 3.63 2.72-3.58 1.1 1.37-2.83 3.53 2.86 3.63zm-5.1-3.2-2.41 3.25h1.83l1.58-2.03-.99-1.22z" fill="#fff"/><path d="m10.14 7.2-1-1.22 1.61-1.98h1.82l-2.42 3.2z" fill="#c7c8d6"/></svg>

<!-- by TradingView --><svg xmlns="http://www.w3.org/2000/svg" width="18" height="18" viewBox="0 0 18 18"><path fill="#0E6CF0" d="M0 0h18v18H0z"/><path d="M5.09 4.14 4.05 5.46 6.82 9 4 12.54 5.04 14l2.77-3.73L10.78 14h1.78L5.1 4.14Z" fill="#C7C8D6"/><path d="M12.91 13.95 5.4 4h1.83l2.92 3.63 2.72-3.58 1.1 1.37-2.83 3.53L14 12.58l-1.09 1.37ZM7.81 10.75 5.4 14h1.83l1.58-2.03-.99-1.22Z" fill="#fff"/><path d="m10.14 7.2-1-1.22L10.75 4h1.82l-2.42 3.2Z" fill="#C7C8D6"/></svg>
